symbolic/22x22/apps/OpenAudible.svg

<svg xmlns="http://www.w3.org/2000/svg" width="22" height="22" version="1">
 <rect style="fill:#3f3f3f" width="20" height="20" x="1" y="1" rx="1" ry="1"/>
 <path style="opacity:0.2" d="M 11.115234,7.5175781 C 10.140665,7.5031957 9.164143,7.6992584 8.28125,8.1152344 7.0421375,8.6862614 6.0143271,9.668954 5.3378906,10.849609 5.9436216,10.086321 6.6768189,9.410279 7.5605469,8.984375 9.140755,8.1826725 11.071758,8.1624546 12.689453,8.8691406 c 1.227792,0.5218484 2.265738,1.4605884 2.912109,2.6269534 0.406048,-0.201539 0.813446,-0.400962 1.21875,-0.605469 C 16.169301,9.717578 15.151099,8.7573076 13.939453,8.1816406 13.063612,7.7573134 12.089804,7.5319606 11.115234,7.5175781 Z M 11.009766,9.507812 C 9.403207,9.491854 7.8934604,10.4234 7.0351562,11.755859 7.8708199,10.894586 9.029074,10.298476 10.25,10.347656 c 1.43026,0.01132 2.781562,0.845189 3.513672,2.060547 0.403264,-0.201724 0.807674,-0.40058 1.210937,-0.601562 -0.815806,-1.377184 -2.349932,-2.317757 -3.964843,-2.298829 z m 0.152343,1.96875 c -0.116565,-0.0081 -0.234443,-0.0065 -0.353515,0.0059 -0.814879,0.04899 -1.484706,0.600348 -1.9453128,1.236328 0.4143978,-0.264636 0.8888288,-0.488147 1.3945308,-0.429688 0.70112,0.04064 1.298031,0.50412 1.673829,1.074219 0.402336,-0.202652 0.806834,-0.401888 1.208984,-0.605469 -0.424466,-0.691746 -1.162555,-1.224882 -1.978516,-1.28125 z M 4,11.941406 V 13 A 11761.646,11761.646 0 0 1 10.998047,16.5 7632.6465,7632.6465 0 0 1 18,13 v -1.056641 c -2.33321,1.167692 -4.667071,2.333969 -7,3.5 C 8.6659703,14.277146 6.3323262,13.110476 4,11.941406 Z"/>
 <path style="opacity:0.1;fill:#ffffff" d="M 2,1 C 1.446,1 1,1.446 1,2 v 0.5 c 0,-0.554 0.446,-1 1,-1 h 18 c 0.554,0 1,0.446 1,1 V 2 C 21,1.446 20.554,1 20,1 Z"/>
 <path style="opacity:0.2" d="m 2,21.5 c -0.554,0 -1,-0.446 -1,-1 V 20 c 0,0.554 0.446,1 1,1 h 18 c 0.554,0 1,-0.446 1,-1 v 0.5 c 0,0.554 -0.446,1 -1,1 z"/>
 <path style="fill:#fda83c" d="m 8.281635,7.615375 c 1.765786,-0.831952 3.90533,-0.7827735 5.657013,0.065881 1.211646,0.575667 2.230291,1.536782 2.881303,2.709829 C 16.414646,10.595592 16.00767,10.795461 15.601623,10.997 14.955251,9.830635 13.918048,8.8901185 12.690256,8.36827 11.072561,7.661584 9.141053,7.682369 7.560845,8.4840715 6.677117,8.9099755 5.944079,9.586412 5.338348,10.3497 6.0147845,9.169045 7.0425225,8.186402 8.281635,7.615375 Z"/>
 <path style="fill:#ed4b2a" d="M 7.036027,11.255132 C 7.894331,9.922673 9.40272,8.991993 11.009279,9.007953 12.62419,8.989023 14.159116,9.92954 14.974922,11.306724 14.571659,11.507706 14.166539,11.706276 13.763275,11.908 13.031165,10.692642 11.680891,9.858834 10.250631,9.847514 9.029705,9.798334 7.8716905,10.393859 7.036027,11.255132 Z"/>
 <path style="fill:#96cc1c" d="M 4,11.441406 V 12.5 A 11761.646,11761.646 0 0 1 10.998047,16 7632.6465,7632.6465 0 0 1 18,12.5 v -1.056641 c -2.33321,1.167584 -4.667071,2.333969 -7,3.5 C 8.6660142,13.777146 6.332326,12.610357 4,11.441406 Z"/>
 <path style="fill:#c42198" d="m 8.863055,12.21787 c 0.460607,-0.63598 1.130548,-1.186223 1.945427,-1.235216 0.952578,-0.09891 1.846885,0.48529 2.331989,1.275858 -0.40215,0.20358 -0.807455,0.402336 -1.209791,0.604988 -0.375798,-0.570099 -0.97225,-1.034604 -1.673368,-1.075246 -0.505703,-0.05846 -0.979859,0.16498 -1.394257,0.429616 z"/>
</svg>

<svg xmlns="http://www.w3.org/2000/svg" width="22" height="22" version="1"><rect style="fill:#3f3f3f" width="20" height="20" x="1" y="1" rx="1" ry="1"/><path style="opacity:.2" d="M11.115 7.518a6.437 6.437 0 0 0-2.834.597c-1.239.571-2.267 1.554-2.943 2.735.606-.764 1.339-1.44 2.223-1.866 1.58-.801 3.51-.822 5.128-.115a6.07 6.07 0 0 1 2.913 2.627c.406-.201.813-.4 1.218-.605a6.516 6.516 0 0 0-2.88-2.71 6.733 6.733 0 0 0-2.825-.663zm-.105 1.99c-1.607-.016-3.117.915-3.975 2.248.836-.861 1.994-1.458 3.215-1.408 1.43.011 2.782.845 3.514 2.06.403-.202.807-.4 1.21-.601-.815-1.378-2.35-2.318-3.964-2.3zm.152 1.969a2.04 2.04 0 0 0-.353.005c-.815.05-1.485.6-1.946 1.237.415-.265.89-.488 1.395-.43.7.04 1.298.504 1.674 1.074.402-.202.806-.402 1.209-.605-.425-.692-1.163-1.225-1.979-1.281zM4 11.94V13a11761.646 11761.646 0 0 1 6.998 3.5A7632.646 7632.646 0 0 1 18 13v-1.057c-2.333 1.168-4.667 2.334-7 3.5a6156.05 6156.05 0 0 1-7-3.502z"/><path style="opacity:.1;fill:#fff" d="M2 1c-.554 0-1 .446-1 1v.5c0-.554.446-1 1-1h18c.554 0 1 .446 1 1V2c0-.554-.446-1-1-1z"/><path style="opacity:.2" d="M2 21.5c-.554 0-1-.446-1-1V20c0 .554.446 1 1 1h18c.554 0 1-.446 1-1v.5c0 .554-.446 1-1 1z"/><path style="fill:#fda83c" d="M8.282 7.615c1.765-.832 3.905-.782 5.657.066a6.52 6.52 0 0 1 2.881 2.71c-.405.205-.812.404-1.218.606a6.071 6.071 0 0 0-2.912-2.629c-1.617-.706-3.549-.686-5.13.116-.883.426-1.616 1.102-2.222 1.866.677-1.181 1.705-2.164 2.944-2.735z"/><path style="fill:#ed4b2a" d="M7.036 11.255c.858-1.332 2.367-2.263 3.973-2.247 1.615-.019 3.15.922 3.966 2.299l-1.212.601c-.732-1.215-2.082-2.05-3.512-2.06-1.221-.05-2.38.546-3.215 1.407z"/><path style="fill:#96cc1c" d="M4 11.441V12.5a11761.646 11761.646 0 0 1 6.998 3.5A7632.646 7632.646 0 0 1 18 12.5v-1.057c-2.333 1.168-4.667 2.334-7 3.5a6399.061 6399.061 0 0 1-7-3.502z"/><path style="fill:#c42198" d="M8.863 12.218c.46-.636 1.13-1.186 1.945-1.235.953-.1 1.847.485 2.332 1.276-.402.203-.807.402-1.21.604-.375-.57-.972-1.034-1.673-1.075-.505-.058-.98.165-1.394.43z"/></svg>
